build/category/GanttChartSolid.svg

<svg xmlns="http://www.w3.org/2000/svg" fill="none" viewBox="0 0 24 24" focusable="false"><path d="M0 0H24V24H0z" transform="matrix(1 0 0 -1 0 24)"/><path fill="#74767B" fill-rule="evenodd" d="M4.00586 19.9648C4.00586 20.3238 4.29687 20.6148 4.65586 20.6148C5.01484 20.6148 5.30586 20.3238 5.30586 19.9648L5.30586 3.99955C5.30586 3.64056 5.01484 3.34955 4.65586 3.34955C4.29687 3.34955 4.00586 3.64056 4.00586 3.99955L4.00586 19.9648ZM10.0736 4.8574C11.1505 4.8574 12.0235 5.73041 12.0235 6.80733C12.0235 7.88424 11.1505 8.75725 10.0736 8.75725L8.54694 8.75725C7.47003 8.75725 6.59702 7.88424 6.59702 6.80733C6.59702 5.73041 7.47003 4.8574 8.54694 4.8574L10.0736 4.8574ZM18.0006 12.0163C18.0006 10.9394 17.1276 10.0664 16.0507 10.0664L10.7574 10.0664C9.68048 10.0664 8.80747 10.9394 8.80747 12.0163C8.80747 13.0932 9.68048 13.9662 10.7574 13.9662L16.0507 13.9662C17.1276 13.9662 18.0006 13.0932 18.0006 12.0163ZM20.0582 17.1921C20.0582 16.1152 19.1852 15.2422 18.1083 15.2422L15.6234 15.2422C14.5464 15.2422 13.6734 16.1152 13.6734 17.1921C13.6734 18.269 14.5464 19.142 15.6234 19.142L18.1083 19.142C19.1852 19.142 20.0582 18.269 20.0582 17.1921Z"/></svg>

<svg xmlns="http://www.w3.org/2000/svg" fill="none" viewBox="0 0 24 24" focusable="false"><path fill="#74767B" fill-rule="evenodd" d="M4.65 20.61c-.36 0-.65-.29-.65-.65V3.99c0-.35.29-.65.65-.65s.65.3.65.65v15.97c0 .36-.29.65-.65.65m5.42-15.76c1.08 0 1.95.88 1.95 1.95 0 1.08-.87 1.95-1.95 1.95H8.54c-1.08 0-1.95-.87-1.95-1.95 0-1.07.87-1.95 1.95-1.95zM18 12.01c0-1.08-.88-1.95-1.95-1.95h-5.3c-1.07 0-1.95.87-1.95 1.95s.88 1.95 1.95 1.95h5.3c1.07 0 1.95-.87 1.95-1.95m2.05 5.18c0-1.08-.87-1.95-1.95-1.95h-2.48c-1.08 0-1.95.87-1.95 1.95 0 1.07.87 1.95 1.95 1.95h2.48c1.08 0 1.95-.88 1.95-1.95"/></svg>
